web-magafilio/image/home/icon-cadastre.svg

<svg width="45" height="45" viewBox="0 0 45 45" fill="none" xmlns="http://www.w3.org/2000/svg">
<path d="M30.7711 21.7864V20.4027C30.7711 20.0568 30.4252 19.7109 30.0793 19.7109H14.8587C14.4263 19.7109 14.1669 20.0568 14.1669 20.4027V21.7864C14.1669 22.2188 14.4263 22.4783 14.8587 22.4783H30.0793C30.4252 22.4783 30.7711 22.2188 30.7711 21.7864ZM14.8587 16.9435H30.0793C30.4252 16.9435 30.7711 16.6841 30.7711 16.2517V14.868C30.7711 14.5221 30.4252 14.1761 30.0793 14.1761H14.8587C14.4263 14.1761 14.1669 14.5221 14.1669 14.868V16.2517C14.1669 16.6841 14.4263 16.9435 14.8587 16.9435ZM43.0514 14.6085C42.8784 14.4356 41.1488 13.0519 39.0733 11.3223V8.64137C39.0733 7.1712 37.7761 5.87399 36.3059 5.87399H32.2413C31.8954 5.61455 31.5495 5.35511 31.3765 5.18215C29.4739 3.71198 26.1877 0.339233 22.469 0.339233C18.6638 0.339233 15.4641 3.6255 13.475 5.18215C13.302 5.35511 12.9561 5.61455 12.6102 5.87399H8.6321C7.07544 5.87399 5.86472 7.1712 5.86472 8.64137V11.3223C3.7027 13.0519 1.97309 14.4356 1.80013 14.6085C0.93532 15.3004 0.329956 16.6841 0.329956 17.8083V40.4662C0.329956 42.8012 2.14605 44.6173 4.48103 44.6173H40.457C42.7055 44.6173 44.608 42.8012 44.608 40.4662V17.8083C44.608 16.5976 44.0027 15.3869 43.0514 14.6085ZM22.469 3.10661C24.2851 3.10661 26.2741 4.57678 27.9173 5.87399H16.9342C18.5774 4.57678 20.5664 3.10661 22.469 3.10661ZM8.6321 8.64137H36.3059V23.689C33.452 25.9375 30.5982 28.186 28.7821 29.6562C27.3119 30.8669 24.458 33.6343 22.469 33.5478C20.3935 33.6343 17.5396 30.8669 16.0694 29.6562C14.2533 28.186 11.3995 25.9375 8.6321 23.689V8.64137ZM3.09734 17.8083C3.09734 17.3759 3.2703 17.03 3.52974 16.7705C3.7027 16.6841 4.56751 15.9057 5.86472 14.9545V21.4405C4.82695 20.6622 3.87566 19.8839 3.09734 19.192V17.8083ZM41.8407 40.4662C41.8407 41.2446 41.1488 41.8499 40.457 41.8499H4.48103C3.7027 41.8499 3.09734 41.2446 3.09734 40.4662V22.7377C6.72952 25.7645 11.6589 29.6562 14.3398 31.8182C16.1559 33.2883 19.2692 36.4016 22.469 36.3152C25.5823 36.4016 28.6956 33.2883 30.5117 31.8182C33.1926 29.6562 38.122 25.7645 41.8407 22.7377V40.4662ZM41.8407 19.192C40.9758 19.8839 40.0246 20.6622 39.0733 21.4405V14.9545C40.284 15.9057 41.1488 16.6841 41.3218 16.7705C41.5812 17.03 41.8407 17.3759 41.8407 17.8083V19.192Z" fill="#FDAA08"/>
</svg>

<svg width="45" height="45" fill="none" xmlns="http://www.w3.org/2000/svg"><path d="M30.771 21.786v-1.383c0-.346-.346-.692-.692-.692H14.86a.682.682 0 00-.692.692v1.383c0 .433.26.692.692.692h15.22c.346 0 .692-.26.692-.692zM14.86 16.943h15.22c.346 0 .692-.259.692-.691v-1.384c0-.346-.346-.692-.692-.692H14.86a.682.682 0 00-.692.692v1.384c0 .432.26.692.692.692zm28.192-2.335c-.173-.172-1.902-1.556-3.978-3.286v-2.68c0-1.47-1.297-2.768-2.767-2.768H32.24c-.346-.26-.692-.519-.864-.692C29.474 3.712 26.186.34 22.468.34c-3.805 0-7.005 3.287-8.994 4.843-.173.173-.519.433-.865.692H8.632c-1.557 0-2.767 1.297-2.767 2.767v2.681c-2.162 1.73-3.892 3.114-4.065 3.287-.865.691-1.47 2.075-1.47 3.2v22.657c0 2.335 1.816 4.151 4.151 4.151h35.976c2.248 0 4.151-1.816 4.151-4.15V17.807c0-1.21-.605-2.421-1.557-3.2zM22.47 3.107c1.816 0 3.805 1.47 5.448 2.767H16.934c1.643-1.297 3.632-2.767 5.535-2.767zM8.632 8.64h27.674V23.69c-2.854 2.248-5.708 4.497-7.524 5.967-1.47 1.21-4.324 3.978-6.313 3.892-2.076.086-4.93-2.681-6.4-3.892-1.816-1.47-4.67-3.718-7.437-5.967V8.641zm-5.535 9.167c0-.432.173-.778.433-1.038.173-.086 1.038-.864 2.335-1.816v6.486a43.785 43.785 0 01-2.768-2.248v-1.384zm38.744 22.658c0 .779-.692 1.384-1.384 1.384H4.481a1.366 1.366 0 01-1.384-1.384V22.738c3.633 3.027 8.562 6.918 11.243 9.08 1.816 1.47 4.93 4.584 8.129 4.497 3.113.087 6.227-3.027 8.043-4.497 2.68-2.162 7.61-6.053 11.329-9.08v17.728zm0-21.274c-.865.692-1.816 1.47-2.768 2.248v-6.486c1.211.952 2.076 1.73 2.249 1.816.26.26.519.606.519 1.038v1.384z" fill="#FDAA08"/></svg>
